;FLAVOR:Marlin
;TIME:2387
;Filament used: 0.807521m
;Layer height: 0.1
;MINX:96.65
;MINY:76.125
;MINZ:0.26
;MAXX:108.35
;MAXY:128.373
;MAXZ:9.86
;TARGET_MACHINE.NAME:Dagoma DiscoEasy200
;Generated with Cura_SteamEngine 5.10.0
;Begin Start Gcode for Dagoma DiscoEasy 200
;Sliced: 03-09-2025 18:39:37
;Initial extruder: 0

G90 ;Absolute positioning
M106 S255 ;Fan on full
G28 X Y ;Home stop X Y
G1 X100 ;Centre back during cooldown in case of oozing
M109 R90 ;Cooldown in case too hot
G28 ;Centre
G29 ;Auto-level
M104 S205 ;Pre-heat
M107 ;Fan off
G0 X100 Y5 Z0.5 ;Front centre for degunk
M109 S205 ;Wait for initial temp
M83 ;E Relative
G1 E10 F200 ;Degunk
G1 E-3 F5000 ;Retract
G0 Z3 ;Withdraw
M82 ;E absolute
G92 E0 ;E reset
G1 F6000 ;Set feedrate

;Finish Start Gcode for Dagoma DiscoEasy 200

M82 ;absolute extrusion mode
G92 E0
G92 E0
G1 F3000 E-3.5
;LAYER_COUNT:97
;LAYER:0
M107
G0 F1285.7 X97.452 Y77.671 Z0.26
;TYPE:SKIRT
G1 F3000 E0
G1 F900 X97.863 Y77.211 E0.02361
G1 X98.387 Y76.79 E0.04933
G1 X98.921 Y76.491 E0.07275
G1 X99.391 Y76.311 E0.09201
G1 X100.08 Y76.163 E0.11898
G1 X100.545 Y76.127 E0.13683
G1 X103.818 Y76.125 E0.26209
G1 X104.516 Y76.135 E0.2888
G1 X105.186 Y76.205 E0.31458
G1 X105.775 Y76.366 E0.33795
G1 X106.286 Y76.594 E0.35936
G1 X106.803 Y76.925 E0.38286
G1 X107.223 Y77.295 E0.40428
G1 X107.682 Y77.859 E0.43211
G1 X107.982 Y78.395 E0.45561
G1 X108.178 Y78.918 E0.47699
G1 X108.31 Y79.572 E0.50252
G1 X108.345 Y80.328 E0.53148
G1 X108.35 Y93.003 E1.01655
G1 X108.342 Y101.539 E1.34322
G1 X108.35 Y102.596 E1.38367
G1 X108.347 Y123.564 E2.1861
G1 X108.332 Y124.312 E2.21474
G1 X108.263 Y124.948 E2.23922
G1 X108.136 Y125.435 E2.25848
G1 X107.843 Y126.1 E2.28629
G1 X107.569 Y126.523 E2.30558
G1 X107.085 Y127.061 E2.33327
G1 X106.647 Y127.409 E2.35468
G1 X106.114 Y127.715 E2.3782
G1 X105.344 Y127.997 E2.40958
G1 X104.453 Y128.14 E2.44412
G1 X103.628 Y128.249 E2.47596
G1 X102.624 Y128.338 E2.51454
G1 X102.019 Y128.364 E2.53771
G1 X101.17 Y128.373 E2.5702
G1 X100.365 Y128.347 E2.60103
G1 X99.759 Y128.272 E2.62439
G1 X99.273 Y128.139 E2.64368
G1 X98.611 Y127.836 E2.67154
G1 X98.105 Y127.492 E2.69495
G1 X97.698 Y127.112 E2.71626
G1 X97.348 Y126.676 E2.73766
G1 X97.016 Y126.09 E2.76344
G1 X96.79 Y125.458 E2.78912
G1 X96.664 Y124.748 E2.81672
G1 X96.652 Y123.513 E2.86398
G1 X96.658 Y122.427 E2.90554
G1 X96.652 Y121.559 E2.93876
G1 X96.658 Y120.428 E2.98205
G1 X96.652 Y119.559 E3.0153
G1 X96.658 Y118.428 E3.05859
G1 X96.652 Y117.557 E3.09192
G1 X96.658 Y116.426 E3.1352
G1 X96.652 Y115.556 E3.1685
G1 X96.658 Y114.426 E3.21174
G1 X96.652 Y113.556 E3.24504
G1 X96.658 Y112.426 E3.28828
G1 X96.652 Y111.483 E3.32437
G1 X96.658 Y110.437 E3.3644
G1 X96.652 Y109.483 E3.40091
G1 X96.658 Y108.437 E3.44094
G1 X96.652 Y107.483 E3.47745
G1 X96.658 Y106.419 E3.51817
G1 X96.652 Y105.557 E3.55116
G1 X96.658 Y104.428 E3.59437
G1 X96.65 Y103.394 E3.63394
G1 X96.658 Y96.466 E3.89907
G1 X96.655 Y80.6 E4.50626
G1 X96.664 Y79.956 E4.53091
G1 X96.734 Y79.286 E4.55669
G1 X96.896 Y78.695 E4.58014
G1 X97.148 Y78.137 E4.60357
G1 X97.452 Y77.671 E4.62486
G0 F1285.7 X97.715 Y77.902
G1 F900 X98.084 Y77.482 E4.64626
G1 X98.56 Y77.094 E4.66976
G1 X99.046 Y76.818 E4.69115
G1 X99.516 Y76.638 E4.71041
G1 X100.107 Y76.512 E4.73353
G1 X100.572 Y76.476 E4.75138
G1 X103.813 Y76.475 E4.87541
G1 X104.511 Y76.485 E4.90213
G1 X105.096 Y76.543 E4.92462
G1 X105.635 Y76.687 E4.94598
G1 X106.097 Y76.889 E4.96527
G1 X106.614 Y77.22 E4.98877
G1 X106.99 Y77.556 E5.00806
G1 X107.378 Y78.032 E5.03156
G1 X107.654 Y78.518 E5.05295
G1 X107.85 Y79.041 E5.07433
G1 X107.96 Y79.589 E5.09572
G1 X107.995 Y80.328 E5.12403
G1 X108 Y93.003 E5.6091
G1 X107.992 Y101.539 E5.93577
G1 X108 Y102.596 E5.97622
G1 X107.997 Y123.558 E6.77842
G1 X107.984 Y124.276 E6.80591
G1 X107.924 Y124.86 E6.82837
G1 X107.797 Y125.347 E6.84763
G1 X107.549 Y125.91 E6.87118
G1 X107.275 Y126.333 E6.89046
G1 X106.865 Y126.789 E6.91393
G1 X106.473 Y127.105 E6.9332
G1 X105.94 Y127.411 E6.95672
G1 X105.288 Y127.651 E6.98331
G1 X104.407 Y127.793 E7.01746
G1 X103.597 Y127.9 E7.04873
G1 X102.608 Y127.988 E7.08673
G1 X102.008 Y128.015 E7.10971
G1 X101.181 Y128.023 E7.14136
G1 X100.406 Y127.999 E7.17103
G1 X99.851 Y127.934 E7.19242
G1 X99.365 Y127.801 E7.2117
G1 X98.806 Y127.546 E7.23521
G1 X98.342 Y127.234 E7.25661
G1 X97.971 Y126.893 E7.2759
G1 X97.621 Y126.457 E7.29729
G1 X97.345 Y125.97 E7.31872
G1 X97.134 Y125.394 E7.34219
G1 X97.014 Y124.745 E7.36745
G1 X97.002 Y123.515 E7.41452
G1 X97.008 Y122.429 E7.45608
G1 X97.002 Y121.561 E7.4893
G1 X97.008 Y120.43 E7.53259
G1 X97.002 Y119.561 E7.56584
G1 X97.008 Y118.43 E7.60913
G1 X97.002 Y117.559 E7.64246
G1 X97.008 Y116.428 E7.68574
G1 X97.002 Y115.558 E7.71904
G1 X97.008 Y114.428 E7.76228
G1 X97.002 Y113.558 E7.79558
G1 X97.008 Y112.428 E7.83882
G1 X97.002 Y111.485 E7.87491
G1 X97.008 Y110.439 E7.91494
G1 X97.002 Y109.485 E7.95145
G1 X97.008 Y108.439 E7.99148
G1 X97.002 Y107.485 E8.02799
G1 X97.008 Y106.421 E8.06871
G1 X97.002 Y105.559 E8.1017
G1 X97.008 Y104.43 E8.14491
G1 X97 Y103.394 E8.18456
G1 X97.008 Y96.466 E8.44969
G1 X97.005 Y80.605 E9.05668
G1 X97.014 Y79.961 E9.08133
G1 X97.072 Y79.376 E9.10383
G1 X97.216 Y78.837 E9.12518
G1 X97.443 Y78.326 E9.14658
G1 X97.715 Y77.902 E9.16586
G0 F1285.7 X98.01 Y78.091
G1 F900 X98.345 Y77.715 E9.18513
G1 X98.735 Y77.397 E9.20439
G1 X99.171 Y77.145 E9.22366
G1 X99.641 Y76.965 E9.24292
G1 X100.134 Y76.861 E9.2622
G1 X100.599 Y76.825 E9.28005
G1 X103.808 Y76.825 E9.40286
G1 X104.506 Y76.835 E9.42957
G1 X105.008 Y76.882 E9.44887
G1 X105.495 Y77.008 E9.46812
G1 X105.957 Y77.21 E9.48741
G1 X106.381 Y77.481 E9.50667
G1 X106.757 Y77.817 E9.52597
G1 X107.075 Y78.207 E9.54523
G1 X107.327 Y78.643 E9.5645
G1 X107.507 Y79.113 E9.58376
G1 X107.61 Y79.606 E9.60303
G1 X107.645 Y80.328 E9.6307
G1 X107.65 Y93.003 E10.11576
G1 X107.642 Y101.539 E10.44243
G1 X107.65 Y102.596 E10.48288
G1 X107.647 Y123.552 E11.28486
G1 X107.634 Y124.27 E11.31234
G1 X107.585 Y124.772 E11.33164
G1 X107.458 Y125.259 E11.3509
G1 X107.255 Y125.72 E11.37018
G1 X106.981 Y126.143 E11.38947
G1 X106.645 Y126.517 E11.40871
G1 X106.253 Y126.833 E11.42798
G1 X105.816 Y127.084 E11.44726
G1 X105.232 Y127.305 E11.47116
G1 X104.361 Y127.446 E11.50493
G1 X103.566 Y127.551 E11.53562
G1 X102.592 Y127.638 E11.57304
G1 X102.005 Y127.665 E11.59553
G1 X101.191 Y127.673 E11.62668
G1 X100.444 Y127.651 E11.65528
G1 X99.943 Y127.596 E11.67457
G1 X99.457 Y127.463 E11.69385
G1 X98.999 Y127.254 E11.71312
G1 X98.579 Y126.976 E11.73239
G1 X98.208 Y126.635 E11.75168
G1 X97.896 Y126.24 E11.77094
G1 X97.651 Y125.8 E11.79021
G1 X97.478 Y125.327 E11.80949
G1 X97.364 Y124.742 E11.8323
G1 X97.352 Y123.517 E11.87918
G1 X97.358 Y122.431 E11.92074
G1 X97.352 Y121.563 E11.95396
G1 X97.358 Y120.432 E11.99724
G1 X97.352 Y119.563 E12.0305
G1 X97.358 Y118.432 E12.07378
G1 X97.352 Y117.561 E12.10711
G1 X97.358 Y116.43 E12.1504
G1 X97.352 Y115.56 E12.18369
G1 X97.358 Y114.43 E12.22694
G1 X97.352 Y113.56 E12.26023
G1 X97.358 Y112.43 E12.30348
G1 X97.352 Y111.487 E12.33957
G1 X97.358 Y110.441 E12.3796
G1 X97.352 Y109.487 E12.41611
G1 X97.358 Y108.441 E12.45614
G1 X97.352 Y107.487 E12.49265
G1 X97.358 Y106.423 E12.53337
G1 X97.352 Y105.561 E12.56636
G1 X97.358 Y104.432 E12.60956
G1 X97.35 Y103.394 E12.64929
G1 X97.358 Y96.466 E12.91442
G1 X97.355 Y80.61 E13.52122
G1 X97.364 Y79.966 E13.54587
G1 X97.411 Y79.464 E13.56517
G1 X97.537 Y78.977 E13.58442
G1 X97.738 Y78.515 E13.6037
G1 X98.01 Y78.091 E13.62298
G1 F3000 E10.12298
;MESH:screw (1).stl
G0 F1285.7 X100.714 Y80.399
G0 X101.779 Y80.399
G0 X102.771 Y92.145
G0 X103.099 Y92.475
;TYPE:WALL-INNER
G1 F3000 E13.62298
G1 F900 X103.095 Y80.525 E14.0803
G1 X101.905 Y80.525 E14.12584
G1 X101.897 Y92.475 E14.58316
G1 X103.099 Y92.475 E14.62916
G0 F1285.7 X103.424 Y92.8
;TYPE:WALL-OUTER
G1 F900 X103.42 Y80.2 E15.11135
G1 X101.58 Y80.2 E15.18177
G1 X101.572 Y92.8 E15.66397
G1 X103.424 Y92.8 E15.73484
G0 F1285.7 X103.424 Y92.6
G0 X102.718 Y92.094
;TYPE:SKIN
G1 F709.5 X102.274 Y92.094 E15.7564
G1 F712.7 X102.279 Y80.899 E16.29744
G1 F717.5 X102.717 Y80.899 E16.31846
G1 F712.7 X102.718 Y92.094 E16.85951
G0 F1285.7 X102.49 Y91.864
G1 F3000 E13.35951
G0 F1285.7 X102.438 Y92.595
G0 X102.438 Y94.052
G0 X102.443 Y94.179
;TYPE:WALL-OUTER
G1 F3000 E16.85951
G1 F820.3 X101.586 Y94.21 E16.89551
G1 F840 X101.582 Y93.895 E16.90843
G1 F824.6 X102.806 Y93.803 E16.9597
G1 F828.9 X103.412 Y93.785 E16.98489
G1 F851.4 X103.416 Y94.091 E16.99727
G1 F824.6 X102.443 Y94.179 E17.03808
G0 F1285.7 X102.244 Y94.186
G1 F3000 E13.53808
G0 F1285.7 X102.249 Y94.068
G0 X102.19 Y96.072
G0 X102.197 Y96.193
G1 F3000 E17.03808
G1 F824.6 X101.586 Y96.212 E17.06361
G1 F840 X101.583 Y95.896 E17.07657
G1 F824.6 X102.806 Y95.803 E17.1278
G1 X103.41 Y95.787 E17.15303
G1 F840 X103.414 Y96.1 E17.16587
G1 F824.6 X102.197 Y96.193 E17.21685
G0 F1285.7 X101.997 Y96.199
G1 F3000 E13.71685
G0 F1285.7 X102.184 Y96.027
G0 X102.435 Y98.047
G0 X102.44 Y98.177
G1 F3000 E17.21685
G1 F822.5 X101.584 Y98.212 E17.25273
G1 F851.4 X101.58 Y97.905 E17.26515
G1 F822.5 X102.552 Y97.819 E17.30601
G1 X103.412 Y97.784 E17.34206
G1 F851.4 X103.416 Y98.091 E17.35448
G1 F822.5 X102.44 Y98.177 E17.39551
G0 F1285.7 X102.241 Y98.185
G1 F3000 E13.89551
G0 F1285.7 X102.248 Y98.065
G0 X102.185 Y100.073
G0 X102.19 Y100.193
G1 F3000 E17.39551
G1 F824.6 X101.586 Y100.209 E17.42075
G1 F842.2 X101.583 Y99.896 E17.43355
G1 F824.6 X102.798 Y99.803 E17.48444
G1 X103.41 Y99.787 E17.51001
G1 F840 X103.414 Y100.1 E17.52285
G1 F824.6 X102.19 Y100.193 E17.57412
G0 F1285.7 X101.99 Y100.198
G1 F3000 E14.07412
G0 F1285.7 X102.185 Y100.027
G0 X102.562 Y101.948
G0 X102.553 Y101.817
G1 F3000 E17.57412
G1 F820.3 X103.41 Y101.786 E17.61013
G1 F840 X103.414 Y102.101 E17.62304
G1 F824.6 X102.19 Y102.193 E17.67431
G1 F828.9 X101.584 Y102.211 E17.6995
G1 F851.4 X101.58 Y101.905 E17.71188
G1 F824.6 X102.553 Y101.817 E17.75269
G0 F1285.7 X102.752 Y101.81
G1 F3000 E14.25269
G0 F1285.7 X102.747 Y101.933
G0 X102.44 Y104.047
G0 X102.444 Y104.177
G1 F3000 E17.75269
G1 F822.5 X101.584 Y104.212 E17.78874
G1 F851.4 X101.58 Y103.905 E17.80116
G1 F822.5 X102.555 Y103.819 E17.84215
G1 F824.6 X103.413 Y103.785 E17.87801
G1 F853.7 X103.417 Y104.091 E17.89036
G1 F824.6 X102.444 Y104.177 E17.93116
G0 F1285.7 X102.245 Y104.185
G1 F3000 E14.43116
G0 F1285.7 X102.253 Y104.066
G0 X102.438 Y106.052
G0 X102.443 Y106.179
G1 F3000 E17.93116
G1 F820.3 X101.586 Y106.21 E17.96716
G1 F840 X101.582 Y105.895 E17.98008
G1 F824.6 X102.806 Y105.803 E18.03135
G1 F828.9 X103.412 Y105.785 E18.05654
G1 F851.4 X103.416 Y106.091 E18.06892
G1 F824.6 X102.443 Y106.179 E18.10973
G0 F1285.7 X102.244 Y106.186
G1 F3000 E14.60973
G0 F1285.7 X102.249 Y106.068
G0 X102.438 Y108.052
G0 X102.443 Y108.179
G1 F3000 E18.10973
G1 F820.3 X101.586 Y108.21 E18.14573
G1 F840 X101.582 Y107.895 E18.15865
G1 F824.6 X102.806 Y107.803 E18.20992
G1 F828.9 X103.412 Y107.785 E18.23511
G1 F851.4 X103.416 Y108.091 E18.24749
G1 F824.6 X102.443 Y108.179 E18.2883
G0 F1285.7 X102.244 Y108.186
G1 F3000 E14.7883
G0 F1285.7 X102.249 Y108.068
G0 X102.438 Y110.052
G0 X102.443 Y110.179
G1 F3000 E18.2883
G1 F820.3 X101.586 Y110.21 E18.3243
G1 F840 X101.582 Y109.895 E18.33722
G1 F824.6 X102.806 Y109.803 E18.38849
G1 F828.9 X103.412 Y109.785 E18.41368
G1 F851.4 X103.416 Y110.091 E18.42606
G1 F824.6 X102.443 Y110.179 E18.46687
G0 F1285.7 X102.244 Y110.186
G1 F3000 E14.96687
G0 F1285.7 X102.249 Y110.068
G0 X102.438 Y112.052
G0 X102.431 Y112.18
G1 F3000 E18.46687
G1 F820.3 X101.586 Y112.21 E18.50237
G1 F840 X101.582 Y111.895 E18.51529
G1 F824.6 X102.806 Y111.803 E18.56655
G1 F828.9 X103.412 Y111.785 E18.59174
G1 F851.4 X103.416 Y112.091 E18.60413
G1 F824.6 X102.431 Y112.18 E18.64544
G0 F1285.7 X102.232 Y112.187
G1 F3000 E15.14544
G0 F1285.7 X102.238 Y112.069
G0 X102.438 Y114.052
G0 X102.443 Y114.179
G1 F3000 E18.64544
G1 F820.3 X101.586 Y114.21 E18.68144
G1 F840 X101.582 Y113.895 E18.69436
G1 F824.6 X102.806 Y113.803 E18.74563
G1 F828.9 X103.412 Y113.785 E18.77082
G1 F851.4 X103.416 Y114.091 E18.7832
G1 F824.6 X102.443 Y114.179 E18.824
G0 F1285.7 X102.244 Y114.186
G1 F3000 E15.324
G0 F1285.7 X102.249 Y114.068
G0 X102.438 Y116.052
G0 X102.443 Y116.179
G1 F3000 E18.824
G1 F820.3 X101.586 Y116.21 E18.86001
G1 F840 X101.582 Y115.895 E18.87293
G1 F824.6 X102.806 Y115.803 E18.9242
G1 F828.9 X103.412 Y115.785 E18.94939
G1 F851.4 X103.416 Y116.091 E18.96177
G1 F824.6 X102.443 Y116.179 E19.00257
G0 F1285.7 X102.244 Y116.186
G1 F3000 E15.50257
G0 F1285.7 X102.249 Y116.068
G0 X102.438 Y118.052
G0 X102.443 Y118.179
G1 F3000 E19.00257
G1 F820.3 X101.586 Y118.21 E19.03858
G1 F840 X101.582 Y117.895 E19.0515
G1 F824.6 X102.806 Y117.803 E19.10277
G1 F828.9 X103.412 Y117.785 E19.12796
G1 F851.4 X103.416 Y118.091 E19.14034
G1 F824.6 X102.443 Y118.179 E19.18114
G0 F1285.7 X102.244 Y118.186
G1 F3000 E15.68114
G0 F1285.7 X102.249 Y118.068
G0 X102.438 Y120.052
G0 X102.443 Y120.179
G1 F3000 E19.18114
G1 F820.3 X101.586 Y120.21 E19.21715
G1 F840 X101.582 Y119.895 E19.23007
G1 F824.6 X102.806 Y119.803 E19.28134
G1 F828.9 X103.412 Y119.785 E19.30653
G1 F851.4 X103.416 Y120.091 E19.31891
G1 F824.6 X102.443 Y120.179 E19.35971
G0 F1285.7 X102.244 Y120.186
G1 F3000 E15.85971
G0 F1285.7 X102.249 Y120.068
G0 X102.438 Y122.052
G0 X102.443 Y122.179
G1 F3000 E19.35971
G1 F820.3 X101.586 Y122.21 E19.39572
G1 F840 X101.582 Y121.895 E19.40864
G1 F824.6 X102.806 Y121.803 E19.45991
G1 F828.9 X103.412 Y121.785 E19.4851
G1 F851.4 X103.416 Y122.091 E19.49748
G1 F824.6 X102.443 Y122.179 E19.53828
G0 F1285.7 X102.244 Y122.186
G1 F3000 E16.03828
G0 F1285.7 X102.249 Y122.068
G0 X102.438 Y124.052
G0 X102.443 Y124.179
G1 F3000 E19.53828
G1 F820.3 X101.586 Y124.21 E19.57429
G1 F840 X101.582 Y123.895 E19.58721
G1 F824.6 X102.806 Y123.803 E19.63848
G1 F828.9 X103.412 Y123.785 E19.66367
G1 F851.4 X103.416 Y124.091 E19.67605
G1 F824.6 X102.443 Y124.179 E19.71685
G0 F1285.7 X102.244 Y124.186
M104 S205
G1 F3000 E16.21685
;MESH:NONMESH
G0 F240 X102.244 Y124.186 Z0.36
G0 F1285.7 X101.722 Y123.046
G0 X100.731 Y123.098
G0 X98.01 Y78.091
;TIME_ELAPSED:54.688980
;LAYER:1
M106 S255
;TYPE:SKIRT
G1 F3000 E19.71685
G1 F900 X98.345 Y77.715 E19.72427
G1 X98.735 Y77.397 E19.73167
G1 X99.171 Y77.145 E19.73909
G1 X99.641 Y76.965 E19.74649
G1 X100.134 Y76.861 E19.75391
G1 X100.599 Y76.825 E19.76077
G1 X103.808 Y76.825 E19.80801
G1 X104.506 Y76.835 E19.81828
G1 X105.008 Y76.882 E19.8257
G1 X105.495 Y77.008 E19.83311
G1 X105.957 Y77.21 E19.84053
G1 X106.381 Y77.481 E19.84794
G1 X106.757 Y77.817 E19.85536
G1 X107.075 Y78.207 E19.86277
G1 X107.327 Y78.643 E19.87018
G1 X107.507 Y79.113 E19.87759
G1 X107.61 Y79.606 E19.885
G1 X107.645 Y80.328 E19.89564
G1 X107.65 Y93.003 E20.0822
G1 X107.642 Y101.539 E20.20784
G1 X107.65 Y102.596 E20.2234
G1 X107.647 Y123.552 E20.53186
G1 X107.634 Y124.27 E20.54243
G1 X107.585 Y124.772 E20.54985
G1 X107.458 Y125.259 E20.55726
G1 X107.255 Y125.72 E20.56467
G1 X106.981 Y126.143 E20.57209
G1 X106.645 Y126.517 E20.57949
G1 X106.253 Y126.833 E20.5869
G1 X105.816 Y127.084 E20.59432
G1 X105.232 Y127.305 E20.60351
G1 X104.361 Y127.446 E20.6165
G1 X103.566 Y127.551 E20.6283
G1 X102.592 Y127.638 E20.64269
G1 X102.005 Y127.665 E20.65134
G1 X101.191 Y127.673 E20.66332
G1 X100.444 Y127.651 E20.67432
G1 X99.943 Y127.596 E20.68174
G1 X99.457 Y127.463 E20.68916
G1 X98.999 Y127.254 E20.69657
G1 X98.579 Y126.976 E20.70398
G1 X98.208 Y126.635 E20.7114
G1 X97.896 Y126.24 E20.71881
G1 X97.651 Y125.8 E20.72622
G1 X97.478 Y125.327 E20.73364
